icon/lg/pusher.svg

<?xml version="1.0" encoding="UTF-8"?>
<svg viewBox="0 0 512 135" version="1.1" xmlns="http://www.w3.org/2000/svg" xmlns:xlink="http://www.w3.org/1999/xlink" preserveAspectRatio="xMidYMid" height="1em" width="1em">
  <g>
    <path d="M43.4764185,0.0539721045 C43.6002633,-0.0183847726 43.7534906,-0.0183847726 43.8773354,0.0539721045 L43.8773354,0.0539721045 L87.1550694,25.0208039 C87.2750732,25.0963786 87.3495684,25.2267451 87.3538966,25.3685017 L87.3538966,25.3685017 L87.3538966,35.1040405 C87.3549828,35.1776711 87.3153856,35.2459422 87.2508637,35.2814374 L87.2508637,35.2814374 L43.7815411,60.3476114 C43.7141303,60.3830908 43.675103,60.4505016 43.675103,60.5214603 L43.675103,60.5214603 L43.675103,70.1328213 C43.6728288,70.2063748 43.7113952,70.2751612 43.7753337,70.3115912 C43.8392722,70.3480213 43.9181097,70.3461278 43.9802255,70.3066702 L43.9802255,70.3066702 L87.0521792,45.4604683 C87.1152256,45.4272831 87.1909519,45.429071 87.2523619,45.4651945 C87.313772,45.5013181 87.3521271,45.5666369 87.3538966,45.6378651 L87.3538966,45.6378651 L87.3538966,55.2456782 C87.3527551,55.3187114 87.3137608,55.3859429 87.2508637,55.423075 L87.2508637,55.423075 L43.7779931,80.4998929 C43.7141303,80.5353722 43.6786509,80.602783 43.6786509,80.6737418 L43.6786509,80.6737418 L43.6786509,90.2886507 C43.6758861,90.3616945 43.7134521,90.4303574 43.7764562,90.4674186 C43.8394602,90.5044798 43.9177259,90.5039532 43.9802255,90.4660475 L43.9802255,90.4660475 L87.0521792,65.6162977 C87.1146788,65.578392 87.1929446,65.5778654 87.2559486,65.6149266 C87.3189526,65.6519878 87.3565186,65.7206507 87.3538966,65.7936945 L87.3538966,65.7936945 L87.3538966,75.4015076 C87.3557983,75.4753479 87.3159726,75.544013 87.2508637,75.5789044 L87.2508637,75.5789044 L43.7815411,100.655722 C43.7141303,100.691202 43.675103,100.76216 43.675103,100.833119 L43.675103,100.833119 L43.675103,134.630766 C43.6767495,134.694335 43.6410785,134.755951 43.5838214,134.791021 C43.5265643,134.826091 43.455468,134.82987 43.3948159,134.801067 L43.3948159,134.801067 L35.0394246,130.000708 C34.9791097,129.961681 34.9436303,129.89427 34.9436303,129.823311 L34.9436303,129.823311 L34.9436303,45.4001533 C34.9436303,45.3291946 34.904603,45.2582359 34.8407401,45.2227565 L34.8407401,45.2227565 L26.5101843,40.41885 C26.4476847,40.3809443 26.369419,40.3804177 26.306415,40.4174789 C26.243411,40.4545401 26.205845,40.523203 26.2086097,40.5962468 L26.2086097,40.5962468 L26.2086097,124.554625 C26.2083197,124.627998 26.1689837,124.695666 26.105368,124.732226 C26.0417523,124.768787 25.963482,124.768709 25.8999392,124.732022 L25.8999392,124.732022 L17.5693834,119.92102 C17.5055206,119.88554 17.4700412,119.814581 17.4700412,119.743623 L17.4700412,119.743623 L17.4700412,35.3346564 C17.4700412,35.2601497 17.4310139,35.1927389 17.3742469,35.1572596 L17.3742469,35.1572596 L9.03659523,30.3498051 C8.97464491,30.3122844 8.89718542,30.3114466 8.83443805,30.3476186 C8.77169068,30.3837906 8.73359742,30.4512411 8.73502059,30.523654 L8.73502059,30.523654 L8.73502059,114.471388 C8.73778535,114.544432 8.70021934,114.613095 8.63721532,114.650156 C8.5742113,114.687218 8.49594556,114.686691 8.43344596,114.648785 L8.43344596,114.648785 L0.102890169,109.841331 C0.0354793688,109.809399 1.42108547e-14,109.738441 1.42108547e-14,109.667482 L1.42108547e-14,109.667482 L1.42108547e-14,25.13079 L8.51150057,20.2062536 C8.64322883,20.1302002 8.80552474,20.1302002 8.93725299,20.2062536 L8.93725299,20.2062536 L52.1830556,45.1730854 C52.3147838,45.2491387 52.4770798,45.2491387 52.608808,45.1730854 L52.608808,45.1730854 L60.8400216,40.4259458 C60.905093,40.3915213 60.9457968,40.3239391 60.9457968,40.250323 C60.9457968,40.1767068 60.905093,40.1091246 60.8400216,40.0747001 L60.8400216,40.0747001 L17.7751638,15.2249502 C17.7119193,15.1899581 17.672667,15.1233806 17.672667,15.0511013 C17.672667,14.978822 17.7119193,14.9122445 17.7751638,14.8772524 L17.7751638,14.8772524 L25.9815418,10.1336608 C26.11327,10.0576074 26.2755659,10.0576074 26.4072942,10.1336608 L26.4072942,10.1336608 L69.6814803,35.0933967 C69.8076952,35.1615252 69.9597302,35.1615252 70.0859451,35.0933967 L70.0859451,35.0933967 L78.3171586,30.3462572 C78.376732,30.3085287 78.4128385,30.2429237 78.4128385,30.1724083 C78.4128385,30.1018928 78.376732,30.0362878 78.3171586,29.9985593 L78.3171586,29.9985593 L35.2452049,5.1523574 C35.1819605,5.11736532 35.1427082,5.05078781 35.1427082,4.97850849 C35.1427082,4.90622917 35.1819605,4.83965166 35.2452049,4.80465958 L35.2452049,4.80465958 Z M282.777665,24.0735048 C295.018047,24.0735048 305.754104,30.8748998 306.382089,48.0859415 C306.396314,48.9692563 305.703674,49.7028257 304.820997,49.7392801 L296.777824,49.7392801 C295.954158,49.7464118 295.269368,49.1068589 295.22028,48.284626 C294.680993,38.9322644 289.068157,34.458316 282.032598,34.458316 C275.266683,34.458316 270.196681,38.4284574 270.196681,44.7792644 C270.196681,50.2643748 273.510454,53.2446418 282.16742,59.3258056 L294.27298,68.0608262 C302.656755,74.1455379 307.389703,79.6377442 307.389703,88.3018061 C307.389703,102.330348 295.823429,110.660904 282.234831,110.660904 C269.384203,110.660904 259.258391,103.650181 258.158531,86.4533309 C258.126706,86.0212976 258.277499,85.5957154 258.574233,85.280098 C258.870967,84.9644805 259.28645,84.7877515 259.719623,84.7928965 L267.897618,84.7928965 C268.711678,84.8115652 269.381258,85.4398698 269.451614,86.2510985 C270.196681,95.8411719 275.944339,100.279641 282.706706,100.279641 C289.199431,100.279641 295.284142,96.7742793 295.284142,88.5714493 C295.284142,83.469516 292.988627,80.9646726 286.350437,76.5297515 L272.36447,66.8084045 C263.980695,61.1813766 258.367859,54.9015283 258.367859,45.4356327 C258.367859,31.875418 269.795764,24.0735048 282.777665,24.0735048 Z M202.981017,24.9952639 C203.392596,24.9834205 203.791551,25.1389475 204.086044,25.4267474 C204.380537,25.7145472 204.545193,26.1098225 204.542109,26.5215812 L204.542109,87.7731635 C204.542109,95.3799401 210.350082,100.208682 217.250819,100.208682 C224.151556,100.208682 230.101446,95.3799401 230.101446,87.7731635 L230.101446,26.5641565 C230.207753,25.7006835 230.9212,25.0396962 231.790264,24.9995163 L240.578504,24.9995163 C240.989463,24.9869934 241.387863,25.1420402 241.682247,25.4290644 C241.976631,25.7160886 242.141713,26.1104362 242.139616,26.5215812 L242.139616,87.9895876 C242.139616,101.950719 230.708143,110.483507 217.31823,110.483507 C204.197959,110.483507 192.769982,101.883308 192.769982,87.9895876 L192.769982,26.5215812 C192.766033,26.1107843 192.929406,25.7160489 193.222562,25.4282472 C193.515718,25.1404456 193.913398,24.9843764 194.324051,24.9952639 L202.981017,24.9952639 Z M486.3299,25.1303748 C501.071577,25.1303748 511.215129,34.4547681 511.215129,48.284626 C511.215129,57.4808784 506.343811,65.1515179 497.417202,69.6503019 C497.326258,69.6796164 497.252487,69.7469159 497.21497,69.8347946 C497.184802,69.9016194 497.17726,69.9757499 497.192344,70.0462275 L497.21497,70.1150816 L511.889237,107.616774 C512.083252,108.102153 512.019634,108.652618 511.720018,109.080946 C511.450365,109.466441 511.022228,109.706295 510.55841,109.739404 L510.402651,109.7427 L501.270262,109.7427 C500.388628,109.569164 499.643383,108.993086 499.25184,108.192595 L499.173431,108.017691 L486.19153,72.6270209 C486.093765,72.3463397 485.847424,72.1469544 485.559657,72.1061118 L485.450011,72.0983783 L473.411861,72.0983783 C473.008037,72.0982397 472.671549,72.3931295 472.609382,72.7814867 L472.599384,72.8895683 L472.599384,108.017691 C472.601535,108.427591 472.436718,108.820701 472.142883,109.106504 C471.885778,109.356582 471.549283,109.505642 471.194722,109.52995 L471.04184,109.53266 L462.2536,109.53266 C461.844805,109.544182 461.448789,109.389555 461.155959,109.104079 C460.899733,108.854287 460.741646,108.522972 460.706876,108.170078 L460.699598,108.017691 L460.699598,26.6528549 C460.698535,26.2432809 460.862961,25.8506426 461.155565,25.5640508 C461.411594,25.3132831 461.74676,25.1623158 462.100859,25.1346258 L462.2536,25.1303748 L486.3299,25.1303748 Z M156.804618,25.1300862 C172.152993,25.1300862 181.689847,34.0573991 181.689847,49.0119531 C181.689847,63.8169615 171.083982,73.2946958 157.091299,73.48277 L156.666249,73.4856217 L143.744663,73.4856217 C143.339576,73.4837137 143.001185,73.7789168 142.938685,74.1684029 L142.928637,74.2768116 L142.928637,108.145417 C142.931629,108.555278 142.768423,108.948862 142.47627,109.236336 C142.220635,109.487876 141.885365,109.639391 141.531035,109.667181 L141.378189,109.671447 L132.586401,109.671447 C131.781646,109.584234 131.152887,108.956828 131.052121,108.167496 L131.039501,108.017691 L131.039501,26.6528549 C131.033836,26.2417099 131.198918,25.8473622 131.493302,25.5603381 C131.750887,25.3091919 132.088111,25.1590909 132.443702,25.1334077 L132.597045,25.1300862 L156.804618,25.1300862 Z M334.914597,25.1264221 C335.326176,25.1146941 335.725132,25.2702212 336.019625,25.558021 C336.314118,25.8458208 336.478774,26.2410961 336.47569,26.6528549 L336.47569,60.6598298 C336.487192,61.0988394 336.845463,61.4492527 337.284619,61.4510198 L363.181011,61.4510198 C363.622312,61.4530613 363.983815,61.1010295 363.993488,60.6598298 L363.993488,26.6528549 C363.99242,26.2423401 364.15722,25.8487996 364.450489,25.5615426 C364.743758,25.2742855 365.140628,25.1176715 365.551032,25.1264221 L374.34282,25.1264221 C374.753793,25.1156765 375.151818,25.2716394 375.44553,25.5593301 C375.739242,25.8470208 375.903415,26.2417302 375.900406,26.6528549 L375.900406,108.078006 C375.90242,108.488825 375.737932,108.882948 375.444442,109.17042 C375.150953,109.457893 374.753508,109.614183 374.34282,109.604122 L365.551032,109.604122 C365.133879,109.600814 364.735035,109.431915 364.442732,109.134286 C364.150429,108.836656 363.98876,108.434827 363.993488,108.017691 L363.993488,72.4318844 C363.98765,71.9879016 363.625027,71.6316128 363.181011,71.6335986 L337.284619,71.6335986 C336.844675,71.6335986 336.482786,71.9883923 336.472142,72.4283365 L336.472142,108.014143 C336.474259,108.424348 336.309551,108.817793 336.015832,109.104152 C335.722114,109.390511 335.324616,109.545184 334.914597,109.53266 L326.126358,109.53266 C325.716632,109.54514 325.319338,109.391054 325.025171,109.105579 C324.731004,108.820103 324.565191,108.427607 324.565191,108.017691 L324.565191,26.6528549 C324.561173,26.240788 324.725511,25.8449166 325.02023,25.5568952 C325.31495,25.2688739 325.714494,25.1136789 326.126358,25.1264221 L334.914597,25.1264221 Z M442.708016,25.13079 C443.119224,25.1162016 443.518461,25.2706872 443.812745,25.5582674 C444.107028,25.8458476 444.270671,26.2414194 444.265676,26.6528549 L444.265676,33.7309889 C444.265676,34.1408887 444.10045,34.5335073 443.807288,34.819992 C443.514125,35.1064767 443.117804,35.2626087 442.708016,35.2530539 L410.858186,35.2530539 C410.417071,35.2548217 410.057213,35.6068226 410.045709,36.0477917 L410.045709,60.9826921 C410.055357,61.4244683 410.416305,61.7775353 410.858186,61.77743 L432.770244,61.77743 C433.17967,61.7668433 433.575864,61.9228662 433.868131,62.2097831 C434.160398,62.4967 434.323714,62.8899435 434.320693,63.2994949 L434.320693,70.374081 C434.323714,70.7836324 434.160398,71.1768759 433.868131,71.4637928 C433.575864,71.7507096 433.17967,71.9067326 432.770244,71.8961459 L410.858186,71.8961459 C410.417071,71.8979138 410.057213,72.2499147 410.045709,72.6908838 L410.045709,98.6227544 C410.057213,99.0637235 410.417071,99.4157244 410.858186,99.4174923 L442.708016,99.4174923 C443.555973,99.4174923 444.24782,100.0916 444.265676,100.939557 L444.265676,108.017691 C444.240652,108.860419 443.55111,109.531112 442.708016,109.53266 L399.699925,109.53266 C399.287393,109.557943 398.883369,109.407831 398.587425,109.11932 C398.291482,108.830809 398.131144,108.430732 398.145928,108.017691 L398.145928,26.6528549 C398.142877,26.2426709 398.306676,25.8488635 398.599723,25.561838 C398.89277,25.2748125 399.289893,25.1192238 399.699925,25.13079 L442.708016,25.13079 Z M156.80107,35.0508215 L143.744663,35.0508215 C143.346643,35.061076 143.019925,35.3554796 142.95962,35.7389229 L142.949925,35.8455593 L142.949925,62.6253869 C142.958854,63.0344569 143.268921,63.3672331 143.665207,63.4144034 L143.76595,63.4201247 L156.804618,63.4307685 C164.91875,63.4307685 169.516876,56.6825926 169.516876,49.0119531 C169.516876,41.0716703 165.326763,35.0508215 156.80107,35.0508215 Z M485.379052,35.0508124 L473.411861,35.0508124 C473.038971,35.0489982 472.728552,35.3228707 472.674912,35.6818316 L472.666795,35.7816965 L472.666795,61.5751976 C472.67734,61.9794192 472.980599,62.3088829 473.370841,62.3623481 L473.479272,62.3699354 L485.379052,62.4408942 C492.38337,62.4408942 498.659723,57.6142498 498.832715,49.1108876 L498.836377,48.7494057 C498.836377,40.9403967 493.766375,35.0508124 485.379052,35.0508124 Z" fill="#300D4F"/>
  </g>
</svg>

<svg width="512" height="135" xmlns="http://www.w3.org/2000/svg" preserveAspectRatio="xMidYMid"><path d="M43.476.054a.397.397 0 0 1 .401 0l43.278 24.967c.12.075.195.206.199.348v9.735a.2.2 0 0 1-.103.177L43.78 60.348a.196.196 0 0 0-.106.173v9.612a.199.199 0 0 0 .305.174L87.052 45.46a.206.206 0 0 1 .302.178v9.608a.21.21 0 0 1-.103.177L43.778 80.5a.197.197 0 0 0-.1.174v9.615a.199.199 0 0 0 .302.177l43.072-24.85a.199.199 0 0 1 .302.178v9.608a.196.196 0 0 1-.103.177l-43.47 25.077a.202.202 0 0 0-.106.177v33.798a.186.186 0 0 1-.091.16.199.199 0 0 1-.19.01l-8.355-4.8a.211.211 0 0 1-.095-.178V45.4a.206.206 0 0 0-.103-.177l-8.33-4.804a.199.199 0 0 0-.302.177v83.959a.206.206 0 0 1-.31.177l-8.33-4.811a.202.202 0 0 1-.099-.177v-84.41a.21.21 0 0 0-.096-.177L9.037 30.35a.199.199 0 0 0-.302.174v83.947a.199.199 0 0 1-.302.178l-8.33-4.808a.19.19 0 0 1-.103-.174V25.131l8.512-4.925a.426.426 0 0 1 .425 0l43.246 24.967a.426.426 0 0 0 .426 0l8.231-4.747a.199.199 0 0 0 0-.351l-43.065-24.85a.199.199 0 0 1 0-.348l8.207-4.743a.426.426 0 0 1 .425 0l43.274 24.96a.426.426 0 0 0 .405 0l8.231-4.748a.206.206 0 0 0 0-.347L35.245 5.152a.199.199 0 0 1 0-.347Zm239.302 24.02c12.24 0 22.976 6.8 23.604 24.012a1.629 1.629 0 0 1-1.561 1.653h-8.043a1.547 1.547 0 0 1-1.558-1.454c-.539-9.353-6.152-13.827-13.187-13.827-6.766 0-11.836 3.97-11.836 10.321 0 5.485 3.313 8.466 11.97 14.547l12.106 8.735c8.384 6.085 13.117 11.577 13.117 20.24 0 14.03-11.567 22.36-25.155 22.36-12.85 0-22.977-7.01-24.076-24.208a1.547 1.547 0 0 1 1.56-1.66h8.179a1.597 1.597 0 0 1 1.554 1.458c.745 9.59 6.492 14.029 13.255 14.029 6.492 0 12.577-3.506 12.577-11.709 0-5.101-2.295-7.606-8.934-12.041l-13.986-9.722c-8.383-5.627-13.996-11.906-13.996-21.372 0-13.56 11.428-21.362 24.41-21.362Zm-79.797.921a1.518 1.518 0 0 1 1.561 1.527v61.251c0 7.607 5.808 12.436 12.709 12.436 6.9 0 12.85-4.83 12.85-12.436V26.564a1.785 1.785 0 0 1 1.69-1.564h8.788a1.515 1.515 0 0 1 1.56 1.522V87.99c0 13.96-11.43 22.494-24.82 22.494-13.121 0-24.549-8.6-24.549-22.494V26.522a1.512 1.512 0 0 1 1.554-1.527h8.657Zm283.349.135c14.742 0 24.885 9.325 24.885 23.155 0 9.196-4.871 16.867-13.798 21.365a.33.33 0 0 0-.202.185.34.34 0 0 0-.023.211l.023.07 14.674 37.5a1.55 1.55 0 0 1-1.33 2.123l-.156.004h-9.133a2.862 2.862 0 0 1-2.018-1.55l-.079-.175-12.981-35.391a.788.788 0 0 0-.632-.52l-.11-.009h-12.038a.813.813 0 0 0-.803.683l-.01.109v35.128a1.508 1.508 0 0 1-1.404 1.512l-.153.003h-8.788a1.511 1.511 0 0 1-1.547-1.363l-.007-.152V26.653a1.519 1.519 0 0 1 1.4-1.518l.154-.005h24.076Zm-329.525 0c15.348 0 24.885 8.927 24.885 23.882 0 14.805-10.606 24.283-24.599 24.47l-.425.004h-12.921a.813.813 0 0 0-.806.682l-.01.109v33.868a1.515 1.515 0 0 1-1.398 1.522l-.153.004h-8.792a1.734 1.734 0 0 1-1.534-1.504l-.012-.15V26.654c-.006-.411.159-.806.453-1.093.258-.25.595-.4.95-.427l.154-.003h24.208Zm178.11-.004a1.519 1.519 0 0 1 1.56 1.527V60.66c.012.439.37.79.81.791h25.896a.809.809 0 0 0 .812-.791V26.653a1.522 1.522 0 0 1 1.558-1.527h8.792a1.519 1.519 0 0 1 1.557 1.527v81.425a1.519 1.519 0 0 1-1.557 1.526h-8.792a1.57 1.57 0 0 1-1.558-1.586V72.432a.809.809 0 0 0-.812-.798h-25.896a.816.816 0 0 0-.813.794v35.586a1.511 1.511 0 0 1-1.557 1.519h-8.789a1.515 1.515 0 0 1-1.56-1.515V26.653a1.512 1.512 0 0 1 1.56-1.527h8.789Zm107.793.005a1.504 1.504 0 0 1 1.558 1.522v7.078a1.523 1.523 0 0 1-1.558 1.522h-31.85a.816.816 0 0 0-.812.795v24.935c.01.441.37.795.812.794h21.912a1.511 1.511 0 0 1 1.55 1.522v7.075a1.511 1.511 0 0 1-1.55 1.522h-21.912a.816.816 0 0 0-.812.795v25.932a.816.816 0 0 0 .812.794h31.85c.848 0 1.54.675 1.558 1.523v7.078a1.561 1.561 0 0 1-1.558 1.515H399.7a1.465 1.465 0 0 1-1.554-1.515V26.653a1.511 1.511 0 0 1 1.554-1.522h43.008Zm-285.907 9.92h-13.056a.816.816 0 0 0-.785.688l-.01.107v26.78c.009.408.319.741.715.788l.101.006 13.039.01c8.114 0 12.712-6.747 12.712-14.418 0-7.94-4.19-13.961-12.716-13.961Zm328.578 0h-11.967a.742.742 0 0 0-.737.63l-.008.1v25.794c.01.404.314.734.704.787l.108.008 11.9.07c7.004 0 13.28-4.826 13.454-13.33l.003-.36c0-7.81-5.07-13.7-13.457-13.7Z" fill="#300D4F"/></svg>
